src/assets/icons/folder_icon.svg

<svg fill="none" height="24" viewBox="0 0 24 24" width="24" xmlns="http://www.w3.org/2000/svg"><path d="m8.79395 3c.46398.0001.91018.1846 1.23825.5127l1.2588 1.25976c.0468.04655.1108.07315.1768.07324h6.8896c.9663.00021 1.75.78364 1.75 1.75v1.47852h1.2383c1.1163 0 1.9471 1.03129 1.71 2.12208l-1.8721 8.6103c-.175.8044-.8868 1.378-1.71 1.378h-.1162v.0009h-16.14646c-.66869-.0002-1.21073-.5432-1.21094-1.2119v-14.2236c0-.9665.7835-1.75 1.75-1.75zm-5.04395 1.5c-.13807 0-.25.11193-.25.25v13.9355h.60352c-.02899-.2003-.02455-.41.02148-.622l1.87207-8.61135c.17494-.80415.88702-1.3777 1.70996-1.37793h10.90037v-1.47852c0-.13794-.1121-.24979-.25-.25h-6.8896c-.4638-.00009-.9093-.18484-1.2373-.51269l-1.2598-1.25977c-.04677-.04665-.1107-.07314-.17675-.07324zm3.95703 5.07422c-.11739.00023-.21919.08251-.24414.19726l-1.87207 8.61032c-.03368.1557.08584.3026.24512.3028h13.63766c.1175 0 .219-.0817.2442-.1963l1.872-8.61135c.0337-.15571-.0847-.30273-.2441-.30273z" fill="#000"/></svg>

<svg width="24" height="24" viewBox="0 0 24 24" fill="none" xmlns="http://www.w3.org/2000/svg">
<path d="M8.79395 3C9.25793 3.0001 9.70413 3.1846 10.0322 3.5127L11.291 4.77246C11.3378 4.81901 11.4018 4.84561 11.4678 4.8457H18.3574C19.3237 4.84591 20.1074 5.62934 20.1074 6.5957V8.07422H21.3457C22.462 8.07422 23.2928 9.10551 23.0557 10.1963L21.1836 18.8066C21.0086 19.611 20.2968 20.1846 19.4736 20.1846H19.3574V20.1855H3.21094C2.54225 20.1853 2.00021 19.6423 2 18.9736V4.75C2 3.7835 2.7835 3 3.75 3H8.79395ZM3.75 4.5C3.61193 4.5 3.5 4.61193 3.5 4.75V18.6855H4.10352C4.07453 18.4852 4.07897 18.2755 4.125 18.0635L5.99707 9.45215C6.17201 8.648 6.88409 8.07445 7.70703 8.07422H18.6074V6.5957C18.6074 6.45776 18.4953 6.34591 18.3574 6.3457H11.4678C11.004 6.34561 10.5585 6.16086 10.2305 5.83301L8.9707 4.57324C8.92393 4.52659 8.86 4.5001 8.79395 4.5H3.75ZM7.70703 9.57422C7.58964 9.57445 7.48784 9.65673 7.46289 9.77148L5.59082 18.3818C5.55714 18.5375 5.67666 18.6844 5.83594 18.6846H19.4736C19.5911 18.6846 19.6926 18.6029 19.7178 18.4883L21.5898 9.87695C21.6235 9.72124 21.5051 9.57422 21.3457 9.57422H7.70703Z" fill="black"/>
</svg>
